dist/assets/images/clover.svg

<svg width="125" height="115" viewBox="0 0 125 115" fill="none" xmlns="http://www.w3.org/2000/svg">
<mask id="path-1-inside-1_1501_7035" fill="white">
<path fill-rule="evenodd" clip-rule="evenodd" d="M61.1682 25.0094C59.2096 10.8985 46.3209 0 30.7129 0C13.7506 0 0 12.8718 0 28.75C0 43.7732 12.3097 56.1051 28.0025 57.3896C28.0034 57.4632 28.0046 57.5367 28.0061 57.6101C12.3116 58.893 0 71.2256 0 86.25C0 102.128 13.7506 115 30.7129 115C46.6867 115 59.8123 103.585 61.2878 88.9931C61.5246 88.9977 61.762 89 62 89C62.5232 89 63.0437 88.9889 63.5611 88.9669C65.0235 103.571 78.1552 115 94.1387 115C111.101 115 124.852 102.128 124.852 86.25C124.852 70.9553 112.093 58.4501 95.995 57.5517C95.9957 57.5172 95.9962 57.4827 95.9967 57.4482C112.094 56.549 124.851 44.0442 124.851 28.75C124.851 12.8718 111.101 0 94.1386 0C78.5199 0 65.6243 10.9134 63.6793 25.0384C63.123 25.0129 62.5631 25 62 25C61.7219 25 61.4446 25.0031 61.1682 25.0094Z"/>
</mask>
<path fill-rule="evenodd" clip-rule="evenodd" d="M61.1682 25.0094C59.2096 10.8985 46.3209 0 30.7129 0C13.7506 0 0 12.8718 0 28.75C0 43.7732 12.3097 56.1051 28.0025 57.3896C28.0034 57.4632 28.0046 57.5367 28.0061 57.6101C12.3116 58.893 0 71.2256 0 86.25C0 102.128 13.7506 115 30.7129 115C46.6867 115 59.8123 103.585 61.2878 88.9931C61.5246 88.9977 61.762 89 62 89C62.5232 89 63.0437 88.9889 63.5611 88.9669C65.0235 103.571 78.1552 115 94.1387 115C111.101 115 124.852 102.128 124.852 86.25C124.852 70.9553 112.093 58.4501 95.995 57.5517C95.9957 57.5172 95.9962 57.4827 95.9967 57.4482C112.094 56.549 124.851 44.0442 124.851 28.75C124.851 12.8718 111.101 0 94.1386 0C78.5199 0 65.6243 10.9134 63.6793 25.0384C63.123 25.0129 62.5631 25 62 25C61.7219 25 61.4446 25.0031 61.1682 25.0094Z" fill="#ED70AE"/>
<path d="M61.1682 25.0094L59.1871 25.2844L59.4321 27.0491L61.2133 27.0089L61.1682 25.0094ZM28.0025 57.3896L30.0023 57.3642L29.9792 55.5447L28.1656 55.3962L28.0025 57.3896ZM28.0061 57.6101L28.169 59.6035L30.043 59.4503L30.0057 57.5704L28.0061 57.6101ZM61.2878 88.9931L61.3264 86.9935L59.4834 86.9579L59.2979 88.7919L61.2878 88.9931ZM63.5611 88.9669L65.5512 88.7676L65.363 86.8884L63.4761 86.9687L63.5611 88.9669ZM95.995 57.5517L93.9954 57.5158L93.9608 59.4412L95.8836 59.5485L95.995 57.5517ZM95.9967 57.4482L95.8852 55.4514L94.0242 55.5553L93.9969 57.419L95.9967 57.4482ZM63.6793 25.0384L63.5879 27.0363L65.4116 27.1197L65.6606 25.3112L63.6793 25.0384ZM63.1492 24.7344C61.0416 9.54978 47.231 -2 30.7129 -2V2C45.4107 2 57.3776 12.2472 59.1871 25.2844L63.1492 24.7344ZM30.7129 -2C12.7725 -2 -2 11.6449 -2 28.75H2C2 14.0988 14.7287 2 30.7129 2V-2ZM-2 28.75C-2 44.9311 11.229 58.0234 27.8393 59.3829L28.1656 55.3962C13.3903 54.1869 2 42.6154 2 28.75H-2ZM30.0057 57.5704C30.0043 57.5017 30.0032 57.433 30.0023 57.3642L26.0026 57.4149C26.0036 57.4934 26.0049 57.5717 26.0065 57.6498L30.0057 57.5704ZM2 86.25C2 72.3836 13.3921 60.8113 28.169 59.6035L27.8431 55.6168C11.2311 56.9746 -2 70.0677 -2 86.25H2ZM30.7129 113C14.7287 113 2 100.901 2 86.25H-2C-2 103.355 12.7725 117 30.7129 117V113ZM59.2979 88.7919C57.9353 102.267 45.758 113 30.7129 113V117C47.6154 117 61.6893 104.902 63.2776 89.1943L59.2979 88.7919ZM62 87C61.7749 87 61.5504 86.9978 61.3264 86.9935L61.2491 90.9927C61.4988 90.9976 61.7491 91 62 91V87ZM63.4761 86.9687C62.987 86.9895 62.4949 87 62 87V91C62.5516 91 63.1004 90.9883 63.6461 90.9651L63.4761 86.9687ZM94.1387 113C79.0844 113 66.9016 102.254 65.5512 88.7676L61.5711 89.1661C63.1453 104.887 77.226 117 94.1387 117V113ZM122.852 86.25C122.852 100.901 110.123 113 94.1387 113V117C112.079 117 126.852 103.355 126.852 86.25H122.852ZM95.8836 59.5485C111.044 60.3946 122.852 72.135 122.852 86.25H126.852C126.852 69.7756 113.142 56.5055 96.1065 55.5548L95.8836 59.5485ZM93.9969 57.419C93.9965 57.4515 93.9959 57.4837 93.9954 57.5158L97.9947 57.5875C97.9954 57.5507 97.996 57.514 97.9965 57.4775L93.9969 57.419ZM96.1083 59.4451C113.142 58.4936 126.851 45.2238 126.851 28.75H122.851C122.851 42.8645 111.045 54.6045 95.8852 55.4514L96.1083 59.4451ZM126.851 28.75C126.851 11.6449 112.079 -2 94.1386 -2V2C110.123 2 122.851 14.0988 122.851 28.75H126.851ZM94.1386 -2C77.6093 -2 63.791 9.5656 61.698 24.7655L65.6606 25.3112C67.4576 12.2612 79.4306 2 94.1386 2V-2ZM62 27C62.5326 27 63.0619 27.0122 63.5879 27.0363L63.7708 23.0404C63.184 23.0136 62.5936 23 62 23V27ZM61.2133 27.0089C61.4748 27.003 61.737 27 62 27V23C61.7069 23 61.4145 23.0033 61.123 23.0099L61.2133 27.0089Z" fill="#D25493" mask="url(#path-1-inside-1_1501_7035)"/>
</svg>

<svg width="125" height="115" fill="none" xmlns="http://www.w3.org/2000/svg"><mask id="path-1-inside-1_1501_7035" fill="#fff"><path fill-rule="evenodd" clip-rule="evenodd" d="M61.168 25.01C59.21 10.897 46.321 0 30.713 0 13.75 0 0 12.872 0 28.75c0 15.023 12.31 27.355 28.003 28.64l.003.22C12.312 58.893 0 71.226 0 86.25 0 102.128 13.75 115 30.713 115c15.974 0 29.1-11.415 30.575-26.007a36.669 36.669 0 002.273-.026C65.023 103.57 78.155 115 94.14 115c16.962 0 30.713-12.872 30.713-28.75 0-15.295-12.759-27.8-28.857-28.698l.002-.104c16.097-.899 28.854-13.404 28.854-28.698C124.852 12.872 111.102 0 94.14 0 78.52 0 65.625 10.913 63.68 25.038a36.673 36.673 0 00-2.51-.029z"/></mask><path fill-rule="evenodd" clip-rule="evenodd" d="M61.168 25.01C59.21 10.897 46.321 0 30.713 0 13.75 0 0 12.872 0 28.75c0 15.023 12.31 27.355 28.003 28.64l.003.22C12.312 58.893 0 71.226 0 86.25 0 102.128 13.75 115 30.713 115c15.974 0 29.1-11.415 30.575-26.007a36.669 36.669 0 002.273-.026C65.023 103.57 78.155 115 94.14 115c16.962 0 30.713-12.872 30.713-28.75 0-15.295-12.759-27.8-28.857-28.698l.002-.104c16.097-.899 28.854-13.404 28.854-28.698C124.852 12.872 111.102 0 94.14 0 78.52 0 65.625 10.913 63.68 25.038a36.673 36.673 0 00-2.51-.029z" fill="#ED70AE"/><path d="M61.168 25.01l-1.98.274.244 1.765 1.781-.04-.045-2zM28.002 57.39l2-.026-.023-1.82-1.813-.148-.163 1.994zm.004.22l.163 1.993 1.874-.153-.037-1.88-2 .04zm33.282 31.383l.038-2-1.843-.035-.185 1.834 1.99.201zm2.273-.026l1.99-.2-.188-1.879-1.887.08.085 1.999zm32.434-31.415l-2-.036-.034 1.925 1.923.107.111-1.996zm.002-.104l-.112-1.997-1.86.104-.028 1.864 2 .03zm-32.318-32.41l-.091 1.998 1.824.084.249-1.809-1.982-.273zm-.53-.304C61.042 9.55 47.231-2 30.713-2v4C45.41 2 57.378 12.247 59.187 25.284l3.962-.55zM30.713-2C12.773-2-2 11.645-2 28.75h4C2 14.099 14.729 2 30.713 2v-4zM-2 28.75c0 16.181 13.229 29.273 29.84 30.633l.326-3.987C13.39 54.186 2 42.616 2 28.75h-4zm32.006 28.82a28.264 28.264 0 01-.004-.206l-4 .05.005.236 3.999-.08zM2 86.25c0-13.866 11.392-25.439 26.169-26.647l-.326-3.986C11.231 56.975-2 70.067-2 86.25h4zM30.713 113C14.729 113 2 100.901 2 86.25h-4C-2 103.355 12.773 117 30.713 117v-4zm28.585-24.208C57.935 102.267 45.758 113 30.713 113v4c16.902 0 30.976-12.098 32.565-27.806l-3.98-.402zM62 87c-.225 0-.45-.002-.674-.007l-.077 4c.25.005.5.007.751.007v-4zm1.476-.031c-.489.02-.981.031-1.476.031v4c.552 0 1.1-.012 1.646-.035l-.17-3.996zM94.14 113c-15.055 0-27.237-10.746-28.588-24.232l-3.98.398C63.145 104.887 77.226 117 94.14 117v-4zm28.713-26.75c0 14.651-12.729 26.75-28.713 26.75v4c17.94 0 32.713-13.645 32.713-30.75h-4zM95.884 59.548c15.16.847 26.968 12.587 26.968 26.702h4c0-16.474-13.71-29.745-30.746-30.695l-.222 3.993zm-1.887-2.129l-.002.097 4 .072.001-.11-4-.059zm2.111 2.026c17.034-.951 30.743-14.221 30.743-30.695h-4c0 14.114-11.806 25.855-26.966 26.701l.223 3.994zm30.743-30.695C126.851 11.645 112.079-2 94.139-2v4c15.984 0 28.712 12.099 28.712 26.75h4zM94.139-2C77.609-2 63.79 9.566 61.698 24.765l3.963.546C67.458 12.261 79.43 2 94.139 2v-4zM62 27c.533 0 1.062.012 1.588.036l.183-3.996A38.812 38.812 0 0062 23v4zm-.787.009c.262-.006.524-.009.787-.009v-4c-.293 0-.586.003-.877.01l.09 3.999z" fill="#D25493" mask="url(#path-1-inside-1_1501_7035)"/></svg>
